img/logo/DevMANU-white.svg

<svg width="109" height="16" viewBox="0 0 109 16" fill="none" xmlns="http://www.w3.org/2000/svg">
<path d="M0.47 0.299999H7.421C9.031 0.299999 10.459 0.600999 11.705 1.203C12.951 1.805 13.917 2.659 14.603 3.765C15.289 4.871 15.632 6.166 15.632 7.65C15.632 9.134 15.289 10.429 14.603 11.535C13.917 12.641 12.951 13.495 11.705 14.097C10.459 14.699 9.031 15 7.421 15H0.47V0.299999ZM7.253 11.682C8.513 11.682 9.521 11.325 10.277 10.611C11.047 9.897 11.432 8.91 11.432 7.65C11.432 6.39 11.047 5.403 10.277 4.689C9.521 3.975 8.513 3.618 7.253 3.618H4.628V11.682H7.253ZM28.0466 9.939H18.8066C18.8906 11.087 19.3316 12.018 20.1296 12.732C20.9276 13.432 21.9356 13.782 23.1536 13.782C23.8396 13.782 24.4696 13.663 25.0436 13.425C25.6176 13.173 26.1146 12.809 26.5346 12.333L27.3746 13.299C26.8846 13.887 26.2686 14.335 25.5266 14.643C24.7986 14.951 23.9936 15.105 23.1116 15.105C21.9776 15.105 20.9696 14.867 20.0876 14.391C19.2196 13.901 18.5406 13.229 18.0506 12.375C17.5606 11.521 17.3156 10.555 17.3156 9.477C17.3156 8.399 17.5466 7.433 18.0086 6.579C18.4846 5.725 19.1286 5.06 19.9406 4.584C20.7666 4.108 21.6906 3.87 22.7126 3.87C23.7346 3.87 24.6516 4.108 25.4636 4.584C26.2756 5.06 26.9126 5.725 27.3746 6.579C27.8366 7.419 28.0676 8.385 28.0676 9.477L28.0466 9.939ZM22.7126 5.151C21.6486 5.151 20.7526 5.494 20.0246 6.18C19.3106 6.852 18.9046 7.734 18.8066 8.826H26.6396C26.5416 7.734 26.1286 6.852 25.4006 6.18C24.6866 5.494 23.7906 5.151 22.7126 5.151ZM40.1794 3.954L35.2654 15H33.7324L28.8394 3.954H30.3934L34.5304 13.362L38.7094 3.954H40.1794ZM55.3202 15L55.2992 6.18L50.9732 13.446H49.4402L45.1352 6.369V15H41.9432V0.299999H44.7572L50.2592 9.435L55.6772 0.299999H58.4702L58.5122 15H55.3202ZM71.6808 11.85H64.8558L63.5538 15H60.0678L66.6198 0.299999H69.9798L76.5528 15H72.9828L71.6808 11.85ZM70.6098 9.267L68.2788 3.639L65.9478 9.267H70.6098ZM91.56 0.299999V15H88.767L81.438 6.075V15H78.078V0.299999H80.892L88.2 9.225V0.299999H91.56ZM101.569 15.252C99.4689 15.252 97.8309 14.671 96.6549 13.509C95.4929 12.347 94.9119 10.688 94.9119 8.532V0.299999H98.3139V8.406C98.3139 11.038 99.4059 12.354 101.59 12.354C102.654 12.354 103.466 12.039 104.026 11.409C104.586 10.765 104.866 9.764 104.866 8.406V0.299999H108.226V8.532C108.226 10.688 107.638 12.347 106.462 13.509C105.3 14.671 103.669 15.252 101.569 15.252Z" fill="white"/>
</svg>

<svg width="109" height="16" fill="none" xmlns="http://www.w3.org/2000/svg"><path d="M.47.3h6.951c1.61 0 3.038.301 4.284.903 1.246.602 2.212 1.456 2.898 2.562.686 1.106 1.029 2.401 1.029 3.885s-.343 2.779-1.029 3.885c-.686 1.106-1.652 1.96-2.898 2.562-1.246.602-2.674.903-4.284.903H.47V.3zm6.783 11.382c1.26 0 2.268-.357 3.024-1.071.77-.714 1.155-1.701 1.155-2.961 0-1.26-.385-2.247-1.155-2.961-.756-.714-1.764-1.071-3.024-1.071H4.628v8.064h2.625zm20.794-1.743h-9.24c.084 1.148.525 2.079 1.323 2.793.798.7 1.806 1.05 3.024 1.05.686 0 1.316-.119 1.89-.357a4.241 4.241 0 001.49-1.092l.84.966a4.715 4.715 0 01-1.847 1.344c-.728.308-1.533.462-2.415.462-1.134 0-2.142-.238-3.024-.714a5.317 5.317 0 01-2.037-2.016c-.49-.854-.735-1.82-.735-2.898s.23-2.044.693-2.898a5.192 5.192 0 011.932-1.995c.826-.476 1.75-.714 2.772-.714 1.022 0 1.939.238 2.75.714a5.043 5.043 0 011.912 1.995c.462.84.693 1.806.693 2.898l-.021.462zm-5.334-4.788c-1.064 0-1.96.343-2.688 1.029-.714.672-1.12 1.554-1.218 2.646h7.833c-.098-1.092-.511-1.974-1.24-2.646-.713-.686-1.61-1.029-2.687-1.029zm17.466-1.197L35.265 15h-1.533L28.84 3.954h1.554l4.137 9.408 4.18-9.408h1.47zM55.32 15l-.02-8.82-4.327 7.266H49.44l-4.305-7.077V15h-3.192V.3h2.814l5.502 9.135L55.677.3h2.793l.042 14.7H55.32zm16.36-3.15h-6.824L63.554 15h-3.486L66.62.3h3.36L76.553 15h-3.57l-1.302-3.15zm-1.07-2.583l-2.331-5.628-2.331 5.628h4.662zM91.56.3V15h-2.793l-7.329-8.925V15h-3.36V.3h2.814L88.2 9.225V.3h3.36zm10.009 14.952c-2.1 0-3.738-.581-4.914-1.743-1.162-1.162-1.743-2.821-1.743-4.977V.3h3.402v8.106c0 2.632 1.092 3.948 3.276 3.948 1.064 0 1.876-.315 2.436-.945.56-.644.84-1.645.84-3.003V.3h3.36v8.232c0 2.156-.588 3.815-1.764 4.977-1.162 1.162-2.793 1.743-4.893 1.743z" fill="#fff"/></svg>
